src/4-icons/position.svg

<svg width="260" height="260" viewBox="0 0 260 260" fill="none" xmlns="http://www.w3.org/2000/svg">
<g opacity="0.9">
<path fill-rule="evenodd" clip-rule="evenodd" d="M129.402 79.066C122.07 79.066 115.362 81.9778 110.526 86.6842C105.691 91.3907 102.648 97.9689 102.648 105.222C102.648 112.476 105.69 119.054 110.526 123.761C115.363 128.467 122.071 131.379 129.402 131.379C136.734 131.379 143.415 128.467 148.252 123.761C153.088 119.054 156.155 112.476 156.13 105.222C156.13 97.9689 153.088 91.3642 148.252 86.6842C143.442 81.9788 136.734 79.066 129.402 79.066ZM141.025 116.323C138.061 119.209 133.978 120.977 129.403 120.977C124.827 120.977 120.745 119.183 117.781 116.323C114.817 113.438 113.049 109.563 113.049 105.247C113.049 100.93 114.843 97.0304 117.781 94.145C120.745 91.2596 124.827 89.4914 129.403 89.4914C133.978 89.4914 138.061 91.285 141.025 94.145C143.988 97.0304 145.756 100.905 145.756 105.247C145.756 109.562 143.988 113.437 141.025 116.323Z" fill="black"/>
<path fill-rule="evenodd" clip-rule="evenodd" d="M130 49.7637C113.802 49.7637 99.0604 56.2373 88.4004 66.6901C77.7404 77.1165 71.085 91.6237 71.085 107.588C71.1091 122.191 76.6238 132.859 77.3337 134.232C77.3696 134.301 77.3932 134.347 77.4032 134.368C79.535 138.243 83.045 144.326 85.3596 148.096L109.591 187.643C110.751 189.544 112.296 192.069 113.826 194.57C115.246 196.89 116.653 199.191 117.73 200.955L121.473 207.065C122.358 208.521 123.501 209.795 124.957 210.756C126.387 211.718 128.18 212.316 130.001 212.291C131.821 212.291 133.59 211.719 135.02 210.756C136.476 209.795 137.62 208.52 138.503 207.091L142.273 200.981C143.466 199.048 145.05 196.477 146.613 193.941C148.012 191.67 149.395 189.427 150.463 187.695L174.8 148.201C177.243 144.223 180.468 138.061 182.314 133.796C182.366 133.693 183.952 130 185.591 124.956C186.396 122.435 187.229 119.575 187.852 116.61C188.476 113.645 188.944 110.605 188.944 107.614C188.944 91.6491 182.289 77.1419 171.629 66.7155C160.942 56.2109 146.201 49.7637 130.002 49.7637H130ZM177.659 114.425C176.853 118.169 175.604 122.017 174.564 124.904C174.044 126.334 173.576 127.555 173.239 128.362C173.161 128.569 173.083 128.75 173.015 128.909C172.947 129.069 172.888 129.206 172.849 129.324L172.745 129.558L172.72 129.61C171.16 133.198 167.91 139.412 165.856 142.74L141.546 182.182C140.363 184.099 138.795 186.643 137.246 189.158L137.206 189.222C135.807 191.493 134.425 193.736 133.356 195.468L129.951 201.006L126.545 195.468C125.386 193.567 123.841 191.042 122.311 188.541L122.309 188.538C120.889 186.219 119.483 183.92 118.407 182.156L94.1752 142.61C91.9916 139.074 88.4816 132.99 86.4788 129.35C86.297 129.065 81.4088 119.625 81.4352 107.562C81.4352 94.5101 86.8434 82.7055 95.6306 74.0737C104.419 65.4673 116.534 60.1383 129.951 60.1383C143.367 60.1383 155.482 65.4683 164.271 74.0737C173.059 82.6801 178.466 94.5091 178.466 107.562C178.518 109.512 178.206 111.93 177.661 114.425H177.659Z" fill="black"/>
</g>
</svg>

<svg width="260" height="260" fill="none" xmlns="http://www.w3.org/2000/svg"><g opacity=".9" fill-rule="evenodd" clip-rule="evenodd" fill="#000"><path d="M129.402 79.066c-7.332 0-14.04 2.912-18.876 7.618-4.835 4.707-7.878 11.285-7.878 18.538 0 7.254 3.042 13.832 7.878 18.539 4.837 4.706 11.545 7.618 18.876 7.618 7.332 0 14.013-2.912 18.85-7.618 4.836-4.707 7.903-11.285 7.878-18.539 0-7.253-3.042-13.858-7.878-18.538-4.81-4.705-11.518-7.618-18.85-7.618Zm11.623 37.257c-2.964 2.886-7.047 4.654-11.622 4.654-4.576 0-8.658-1.794-11.622-4.654-2.964-2.885-4.732-6.76-4.732-11.076 0-4.317 1.794-8.217 4.732-11.102 2.964-2.885 7.046-4.654 11.622-4.654 4.575 0 8.658 1.794 11.622 4.654 2.963 2.885 4.731 6.76 4.731 11.102 0 4.315-1.768 8.19-4.731 11.076Z"/><path d="M130 49.764c-16.198 0-30.94 6.473-41.6 16.926-10.66 10.427-17.315 24.934-17.315 40.898.024 14.603 5.539 25.271 6.249 26.644l.07.136c2.131 3.875 5.641 9.958 7.956 13.728l24.231 39.547c1.16 1.901 2.705 4.426 4.235 6.927 1.42 2.32 2.827 4.621 3.904 6.385l3.743 6.11c.885 1.456 2.028 2.73 3.484 3.691 1.43.962 3.223 1.56 5.044 1.535 1.82 0 3.589-.572 5.019-1.535 1.456-.961 2.6-2.236 3.483-3.665l3.77-6.11c1.193-1.933 2.777-4.504 4.34-7.04l3.85-6.246 24.337-39.494c2.443-3.978 5.668-10.14 7.514-14.405.052-.103 1.638-3.796 3.277-8.84.805-2.521 1.638-5.381 2.261-8.346.624-2.965 1.092-6.005 1.092-8.996 0-15.965-6.655-30.472-17.315-40.898-10.687-10.505-25.428-16.952-41.627-16.952H130Zm47.659 64.661c-.806 3.744-2.055 7.592-3.095 10.479a86.363 86.363 0 0 1-1.325 3.458c-.078.207-.156.388-.224.547-.068.16-.127.297-.166.415l-.104.234-.025.052c-1.56 3.588-4.81 9.802-6.864 13.13l-24.31 39.442a10046.41 10046.41 0 0 0-4.3 6.976l-.04.064a9385.629 9385.629 0 0 1-3.85 6.246l-3.405 5.538-3.406-5.538c-1.159-1.901-2.704-4.426-4.234-6.927l-.002-.003a4662.2 4662.2 0 0 1-3.902-6.382L94.175 142.61c-2.183-3.536-5.693-9.62-7.696-13.26-.182-.285-5.07-9.725-5.044-21.788 0-13.052 5.408-24.856 14.196-33.488 8.788-8.607 20.903-13.936 34.32-13.936 13.416 0 25.531 5.33 34.32 13.936 8.788 8.606 14.195 20.435 14.195 33.488.052 1.95-.26 4.368-.805 6.863h-.002Z"/></g></svg>
